!!!cenid: 16xx:1773
!!!COM: Scacchi, Marco
!!!COM-rismID: pe30013433
!!!CDT: ~1605-1662
!!!CNT: Italian
!!!OPR: Missa omnium tonorum pro electione Regis Poloniae Casimiri
!!!OTL: Agnus Dei
!!!OMV: 006
!!!PDT:
!!!AGN:
!!!SMS-siglum: D-B
!!!SMS-shelfmark: Mus.ms. 19600/1
!!!SMS-shelfwork: 001-006 M
!!!SMS-variant:
!!!SMS-altvar:
!!!NIFC-rismSourceID: 452507522
!!!NIFC-rismChildID: 452507522
!!!NIFC-islandoraID: none
!!!URL-pdf-islandora:
!!!URL-scan: https://digital.staatsbibliothek-berlin.de/werkansicht?PPN=PPN73488298X&PHYSID=PHYS_0003&DMDID= @EN{Scan on Staatsbibliothek zu Berlin Website} @PL{Skany w portalu Staatsbibliothek zu Berlin}
!!!ONB-nifc: UWAGA: Agnus Dei na s. 94-98. Części Mszy: 1. Kyrie, 2. Et in terra, 3. Patrem, 4. Sanctus, 5. Benedictus, 6. Agnus Dei
!!!AIN: 3 alto 3 bass 1 fagot 4 soprn 3 tenor 3 viola 2 violn
!!!key:
**kern	**fba	**kern	**kern	**text	**kern	**text	**kern	**kern	**text	**kern	**text	**kern	**text	**kern	**kern	**text	**kern	**text	**kern	**text	**kern	**kern	**text	**kern	**text	**kern	**kern	**kern	**kern	**kern	**kern
*part20	*part20	*part20	*part19	*part19	*part18	*part18	*part17	*part16	*part16	*part15	*part15	*part14	*part14	*part13	*part12	*part12	*part11	*part11	*part10	*part10	*part9	*part8	*part8	*part7	*part7	*part6	*part5	*part4	*part3	*part2	*part1
*staff20	*	*staff20	*staff19	*staff19	*staff18	*staff18	*staff17	*staff16	*staff16	*staff15	*staff15	*staff14	*staff14	*staff13	*staff12	*staff12	*staff11	*staff11	*staff10	*staff10	*staff9	*staff8	*staff8	*staff7	*staff7	*staff6	*staff5	*staff4	*staff3	*staff2	*staff1
*I"Continuo	*	*I"Continuo	*I"Basso del coro ripieno	*	*I"Tenore del coro ripieno	*	*I"Alto del coro ripieno	*I"Soprano del coro ripieno	*	*I"Basso del coro secondo	*	*I"tenore del coro 2	*	*I"alto del coro secondo	*I"soprano del coro secondo	*	*I"basso del Coro primo.	*	*I"tenore del coro primo.	*	*I"alto del coro primo.	*I"canto 2 del coro primo.	*	*I"canto 1 del primo.	*	*I"Fagotto	*I"Viola 3.	*I"Viola 2	*I"Viola 1.	*I"Violino 2.	*I"Violino 1.
*I'bc	*	*I'bc	*I'Coro B rip	*	*I'Coro T rip	*	*I'Coro A rip	*I'Coro S rip	*	*I'Coro B 2	*	*I'Coro T 2	*	*I'Coro A 2	*I'Coro S 2	*	*I'Coro B 1	*	*I'Coro T 1	*	*I'Coro A 1	*I'Coro S 1	*	*I'Coro S 1	*	*I'fag	*I'vla 3	*I'vla 2	*I'vla 1	*I'vl 2	*I'vl 1
*	*	*	*ICvox	*	*ICvox	*	*ICvox	*ICvox	*	*ICvox	*	*ICvox	*	*ICvox	*ICvox	*	*ICvox	*	*ICvox	*	*ICvox	*ICvox	*	*ICvox	*	*ICww	*ICstr	*ICstr	*ICstr	*ICstr	*ICstr
*	*	*	*Ibass	*	*Itenor	*	*Ialto	*Isoprn	*	*Ibass	*	*Itenor	*	*Ialto	*Isoprn	*	*Ibass	*	*Itenor	*	*Ialto	*Isoprn	*	*Isoprn	*	*Ifagot	*Iviola	*Iviola	*Iviola	*Ivioln	*Ivioln
*IGcont	*	*IGcont	*	*	*	*	*	*	*	*	*	*	*	*	*	*	*	*	*	*	*	*	*	*	*	*	*	*	*	*	*
*clefF4	*	*clefF4	*clefF4	*	*clefC4	*	*clefC3	*clefC1	*	*clefF4	*	*clefC4	*	*clefC3	*clefC1	*	*clefF4	*	*clefC4	*	*clefC3	*clefC1	*	*clefC1	*	*clefF4	*clefC4	*clefC3	*clefC3	*clefG2	*clefG2
*k[b-]	*	*k[b-]	*k[b-]	*	*k[b-]	*	*k[b-]	*k[b-]	*	*k[b-]	*	*k[b-]	*	*k[b-]	*k[b-]	*	*k[b-]	*	*k[b-]	*	*k[b-]	*k[b-]	*	*k[b-]	*	*k[b-]	*k[b-]	*k[b-]	*k[b-]	*k[b-]	*k[b-]
*F:	*	*F:	*F:	*	*F:	*	*F:	*F:	*	*F:	*	*F:	*	*F:	*F:	*	*F:	*	*F:	*	*F:	*F:	*	*F:	*	*F:	*F:	*F:	*F:	*F:	*F:
*M4/2	*	*M4/2	*M4/2	*	*M4/2	*	*M4/2	*M4/2	*	*M4/2	*	*M4/2	*	*M4/2	*M4/2	*	*M4/2	*	*M4/2	*	*M4/2	*M4/2	*	*M4/2	*	*M4/2	*M4/2	*M4/2	*M4/2	*M4/2	*M4/2
*met(c|)	*	*met(c|)	*met(c|)	*	*met(c|)	*	*met(c|)	*met(c|)	*	*met(c|)	*	*met(c|)	*	*met(c|)	*met(c|)	*	*met(c|)	*	*met(c|)	*	*met(c|)	*met(c|)	*	*met(c|)	*	*met(c|)	*met(c|)	*met(c|)	*met(c|)	*met(c|)	*met(c|)
=1	=1	=1	=1	=1	=1	=1	=1	=1	=1	=1	=1	=1	=1	=1	=1	=1	=1	=1	=1	=1	=1	=1	=1	=1	=1	=1	=1	=1	=1	=1	=1
!!LO:TX:t=P:problem: all\right	!	!	!	!	!	!	!	!	!	!	!	!	!	!	!	!	!	!	!	!	!	!	!	!	!	!	!	!	!
!!LO:TX:t=P:problem: problem z wyświetlaniem cyfrowania dla bc (VHV nie wyświetla cyfrowania), po uzgdonieniu z Jackiem Iwaszko -> początkowo cyfrowanie zostało zapisane w fing, a następnie zamienione na fba. Możliwe nieliczne błędy po konwersji	!	!	!	!	!	!	!	!	!	!	!	!	!	!	!	!	!	!	! 	!	!	!	!	!	!	!	!	!	!	!	!	!	!	!	!	!	!	!	!	!	!	!	!	!	!	!	!	!	!	!
*	*	*	*	*	*	*	*	*	*	*	*	*	*	*	*	*	*	*	*	*	*	*	*	*	*	*2\right	*2\right	*2\right	*2\right	*2\right	*2\right
!	!	!	!	!	!	!	!	!	!	!	!	!	!	!	!	!	!	!	!	!	!	!	!	!	!	!	!	!	!	!	!LO:TX:t=P:problem:all/right:global
!LO:TX:b:i:t=Duodecimi toni	!	!LO:TX:b:t=Duodecimi toni	!	!	!	!	!	!	!	!	!	!	!	!	!	!	!	!	!	!	!	!	!	!	!	!	!	!	!	!	!LO:TX:t=P:problem:znak alla breve (przekreślone C)
1C	.	1C	0r	.	0r	.	0r	0r	.	0r	.	0r	.	0r	0r	.	0r	.	0r	.	0r	0r	.	0r	.	2C\	2G\	2c\	2e\	2cc\	2ee\
.	.	.	.	.	.	.	.	.	.	.	.	.	.	.	.	.	.	.	.	.	.	.	.	.	.	4C\	4G\	4c\	4f\	4cc\	4ee\
.	.	.	.	.	.	.	.	.	.	.	.	.	.	.	.	.	.	.	.	.	.	.	.	.	.	4C\	4G\	4c\	4g\	4cc\	4ee\
*	*above	*	*	*	*	*	*	*	*	*	*	*	*	*	*	*	*	*	*	*	*	*	*	*	*	*	*	*	*	*	*
2AA/	6	2AA/	.	.	.	.	.	.	.	.	.	.	.	.	.	.	.	.	.	.	.	.	.	.	.	2AA/	2A\	2c\	2f\	2cc\	2ff\
2BB-/	.	2BB-/	.	.	.	.	.	.	.	.	.	.	.	.	.	.	.	.	.	.	.	.	.	.	.	2BB-/	2D\	2A\	2f\	2dd\	[2ff\
=2	=2	=2	=2	=2	=2	=2	=2	=2	=2	=2	=2	=2	=2	=2	=2	=2	=2	=2	=2	=2	=2	=2	=2	=2	=2	=2	=2	=2	=2	=2	=2
*	*below	*	*	*	*	*	*	*	*	*	*	*	*	*	*	*	*	*	*	*	*	*	*	*	*	*	*	*	*	*	*
0GG	7:6:5 3n:4:n	0GG	0r	.	0r	.	0r	0r	.	0r	.	0r	.	0r	0r	.	0r	.	0r	.	0r	0r	.	0r	.	0GG	1G	2d\	0g	2bn\	2ff\]
.	.	.	.	.	.	.	.	.	.	.	.	.	.	.	.	.	.	.	.	.	.	.	.	.	.	.	.	2c\	.	1cc	2ee\
.	.	.	.	.	.	.	.	.	.	.	.	.	.	.	.	.	.	.	.	.	.	.	.	.	.	.	1G	1d	.	.	1dd
.	.	.	.	.	.	.	.	.	.	.	.	.	.	.	.	.	.	.	.	.	.	.	.	.	.	.	.	.	.	2b\	.
!!LO:PB:g=original	!	!	!	!	!	!	!	!	!	!	!	!	!	!	!	!	!	!	!	!	!	!	!	!	!	!	!	!	!
=3	=3	=3	=3	=3	=3	=3	=3	=3	=3	=3	=3	=3	=3	=3	=3	=3	=3	=3	=3	=3	=3	=3	=3	=3	=3	=3	=3	=3	=3	=3	=3
*	*	*	*	*	*2\right	*	*2\right	*2\right	*	*	*	*2\right	*	*2\right	*2\right	*	*	*	*2\right	*	*2\right	*2\right	*	*2\right	*	*	*	*	*	*	*
!	!	!	!yyLO:TX:a:t=col coro secondo	!	!yyLO:TX:a:t=col coro secondo	!	!yyLO:TX:a:t=col coro secondo	!LO:TX:a:i:t=col coro secondo	!	!LO:TX:a:i:t=col basso del Coro 1	!	!LO:TX:a:i:t=col tenore del Coro 1	!	!LO:TX:a:i:t=col alto del Coro 1.	!	!	!	!	!	!	!	!	!	!	!	!	!LO:TX:t=P:problem:nieczytelny zapis	!	!	!	!
1C	.	1C	2.C/yy	.	2.c\yy	.	2.e\yy	2.g\yy	A-	2.C/yy	.	2.c\yy	.	2.e\yy	2.g\	A-	2.C/	.	2.c\	.	2.e\	2.g\	.	2.cc\	A-	2.C/	4G/	2.e\	2.e\	4cc\	2.cc\
.	.	.	.	.	.	.	.	.	.	.	.	.	.	.	.	.	.	.	.	.	.	.	.	.	.	.	2c\	.	.	2g\	.
.	.	.	4C/yy	.	4c\yy	.	4e\yy	4g\yy	-gnus	4C/yy	.	4c\yy	.	4e\yy	4g\	-gnus	4C/	.	4c\	.	4e\	4g\	.	4cc\	-gnus	4C/	4c\	4e\	4e\	4g\	4cc\
2.AA/	.	2.AA/	2.AA/yy	.	[y1cyy	.	[y1fyy	(1ayy	De-	2.AA/yy	.	[y1cyy	.	[y1fyy	(1a	De-	2.AA/	.	[1c	.	[1f	(1a	.	[1cc	De-	2.AA/	[1c	[1f	[1f	1a	[1cc
4BB-/	.	4BB-/	4BB-/yy	.	.	.	.	.	.	4BB-/yy	.	.	.	.	.	.	4BB-/	.	.	.	.	.	.	.	.	4BB-/	.	.	.	.	.
=4	=4	=4	=4	=4	=4	=4	=4	=4	=4	=4	=4	=4	=4	=4	=4	=4	=4	=4	=4	=4	=4	=4	=4	=4	=4	=4	=4	=4	=4	=4	=4
1C	4:3	1C	1BB-yy	.	1c]yy	.	2f\]yy	1g)yy	.	1BB-yy	.	1c]yy	.	2f\]yy	1g)	.	1BB-	.	1c]	.	2f\]	1g)	.	1cc]	.	1C	1c]	2f\]	2f\]	1g	1cc]
.	.	.	.	.	.	.	2e\yy	.	.	.	.	.	.	2e\yy	.	.	.	.	.	.	2e\	.	.	.	.	.	.	2e\	2e\	.	.
1F	.	1F	1FFyy	.	1cyy	.	1fyy	1ayy	-i	1FFyy	.	1cyy	.	1fyy	1a	-i	1FF	.	1c	.	1f	1a	.	1cc	-i	2F\	[1c	2f\	2f\	2a\	2cc\
.	.	.	.	.	.	.	.	.	.	.	.	.	.	.	.	.	.	.	.	.	.	.	.	.	.	4F\	.	4f\	4a\	4a\	4cc\
.	.	.	.	.	.	.	.	.	.	.	.	.	.	.	.	.	.	.	.	.	.	.	.	.	.	4F\	.	4f\	4f\	4a\	4cc\
=5	=5	=5	=5	=5	=5	=5	=5	=5	=5	=5	=5	=5	=5	=5	=5	=5	=5	=5	=5	=5	=5	=5	=5	=5	=5	=5	=5	=5	=5	=5	=5
*2\right	*	*	*	*	*	*	*	*	*	*	*	*	*	*	*	*	*	*	*	*	*	*	*	*	*	*	*	*	*	*	*
2.D\	.	2.D\	0ryy	.	0ryy	.	0ryy	0ryy	.	0ryy	.	0ryy	.	0ryy	0r	.	0r	.	0r	.	0r	0r	.	0r	.	2.D\	2c\]	0f	2d\	2a\	1cc
.	.	.	.	.	.	.	.	.	.	.	.	.	.	.	.	.	.	.	.	.	.	.	.	.	.	.	2B-\	.	2.f\	1b-	.
4E-X\	.	4E-X\	.	.	.	.	.	.	.	.	.	.	.	.	.	.	.	.	.	.	.	.	.	.	.	4E-X\	.	.	.	.	.
2F\	4:3	2F\	.	.	.	.	.	.	.	.	.	.	.	.	.	.	.	.	.	.	.	.	.	.	.	1F	1F	.	.	.	1cc
.	.	.	.	.	.	.	.	.	.	.	.	.	.	.	.	.	.	.	.	.	.	.	.	.	.	.	.	.	4c\	.	.
2F\	.	2F\	.	.	.	.	.	.	.	.	.	.	.	.	.	.	.	.	.	.	.	.	.	.	.	.	.	.	2c\	2a\	.
=6	=6	=6	=6	=6	=6	=6	=6	=6	=6	=6	=6	=6	=6	=6	=6	=6	=6	=6	=6	=6	=6	=6	=6	=6	=6	=6	=6	=6	=6	=6	=6
*	*	*	*	*	*	*	*	*	*	*	*	*	*	*	*	*	*2\right	*	*	*	*	*	*	*	*	*	*	*	*	*	*
!	!	!	!	!	!	!	!	!	!	!	!	!	!	!	!LO:TX:a:i:t=col Canto 1 del Coro 1	!	!	!	!	!	!	!LO:TX:a:i:t=col 1mo	!	!	!	!	!	!	!	!	!
1BB-	.	1BB-	2.B-\yy	.	2.d\yy	.	2.f\yy	1b-yy	A-	2.B-\yy	.	2.d\yy	.	2.f\yy	1b-yy	A-	2.B-\	.	2.d\	.	2.f\	1b-	A-	1b-	A-	2.BB-/	2B-\	2f\	2B-\	1b-	1.dd
.	.	.	.	.	.	.	.	.	.	.	.	.	.	.	.	.	.	.	.	.	.	.	.	.	.	.	2d\	4f\	4f\	.	.
.	.	.	4B-\yy	.	4d\yy	.	4f\yy	.	.	4B-\yy	.	4d\yy	.	4f\yy	.	.	4B-\	.	4d\	.	4f\	.	.	.	.	4BB-/	.	4f\	4f\	.	.
2.FF#X/	6	2.FF#X/	2.F#X\yy	.	[y1dyy	.	2.a\yy	(2dd\yy	-gnus	2.F#X\yy	.	[y1dyy	.	2.a\yy	(2dd\yy	-gnus	2.F#X\	.	[1d	.	2.a\	(2dd\	-gnus	(2dd\	-gnus	2.F#X\	[1d	2.a\	2.a\	2dd\	.
.	.	.	.	.	.	.	.	2g\)yy	.	.	.	.	.	.	2g\)yy	.	.	.	.	.	.	2g\)	.	2g\)	.	.	.	.	.	2a\	2dd\
4GG/	.	4GG/	4G\yy	.	.	.	8g\Lyy	.	.	4G\yy	.	.	.	8g\Lyy	.	.	4G\	.	.	.	8g\L	.	.	.	.	4G\	.	8g\L	8g\L	.	.
.	.	.	.	.	.	.	8f\Jyy	.	.	.	.	.	.	8f\Jyy	.	.	.	.	.	.	8f\J	.	.	.	.	.	.	8f\J	8f\J	.	.
=7	=7	=7	=7	=7	=7	=7	=7	=7	=7	=7	=7	=7	=7	=7	=7	=7	=7	=7	=7	=7	=7	=7	=7	=7	=7	=7	=7	=7	=7	=7	=7
!	!	!	!	!	!	!	!	!	!	!	!	!	!	!	!	!	!	!	!	!	!	!	!	!	!	!	!	!	!	!LO:TX:a:i:t=col 1mo	!
2AA/	4	2AA/	1Ayy	.	2d\]yy	.	1eyy	1ayy	De-	1Ayy	.	2d\]yy	.	1eyy	1ayy	De-	1A	.	2d\]	.	1e	1a	De-	1a	De-	1A	2d\]	1e	1e	1ayy	1a
2AA/	#	2AA/	.	.	2c#X\yy	.	.	.	.	.	.	2c#X\yy	.	.	.	.	.	.	2c#X\	.	.	.	.	.	.	.	2c#X\	.	.	.	.
4D\	.	4D\	4D\yy	.	4d\yy	.	4d\yy	4a\yy	-i	4D\yy	.	4d\yy	.	4d\	4a\yy	-i	4D\	.	4d\	.	4f#X\	4a\	-i	4a\	-i	4D\	4d\	4d\	4f#X\	4a/yy	4a/
4BB-\	.	4BB-\	4BB-\yy	.	4d\yy	.	4f\yy	4b-\yy	qui	4BB-\yy	.	4d\yy	.	4f\	4b-\yy	qui	4BB-\	.	4d\	.	4fn\	4b-\	qui	4b-\	qui	4BB-\	4d\	4f\	4fn\	4b-/yy	4b-/
2BB-\	.	2BB-\	2BB-/yy	.	2d\yy	.	2f\yy	2cc\yy	tol-	2BB-/yy	.	2d\yy	.	2f\	2cc\yy	tol-	2BB-/	.	2d\	.	2f\	2cc\	tol-	2cc\	tol-	2C\	2d\	2f\	2f\	2b-\yy	2b-\
=8	=8	=8	=8	=8	=8	=8	=8	=8	=8	=8	=8	=8	=8	=8	=8	=8	=8	=8	=8	=8	=8	=8	=8	=8	=8	=8	=8	=8	=8	=8	=8
4BB-\	.	4BB-\	4BB-/yy	.	4d\yy	.	4f\yy	4b-\yy	-lis	4BB-/yy	.	4d\yy	.	4f\yy	4b-\yy	-lis	4BB-/	.	4d\	.	4f\	4b-\	-lis	4b-\	-lis	4BB-/	4d\	2.f\	2.f\	4b-\yy	4b-\
4BB-\	.	4BB-\	4BB-/yy	.	4d\yy	.	4f\yy	4b-\yy	pec-	4BB-/yy	.	4d\yy	.	4f\yy	4b-\yy	pec-	4BB-/	.	4d\	.	4f\	4b-\	pec-	4b-\	pec-	4BB-/	4d\	.	.	4b-\yy	4b-\
4F\	.	4F\	4F\yy	.	4d\yy	.	4f\yy	4a\yy	-ca-	4F\yy	.	4d\yy	.	4f\yy	4a\yy	-ca-	4F\	.	4d\	.	4f\	4a\	-ca-	4a\	-ca-	4FF/	4c\	.	.	4a/yy	4a/
4C\	.	4C\	4C\yy	.	4c\yy	.	4e\yy	4g\yy	-ta	4C\yy	.	4c\yy	.	4e\yy	4g\yy	-ta	4C\	.	4c\	.	4e\	4g\	-ta	4g\	-ta	4C/	4c\	4e\	4e\	4g/yy	4g/
1G	4n:n	1G	1Gyy	.	4Bn\yy	.	1eyy	1gyy	mun	1Gyy	.	4Bn\yy	.	1eyy	1gyy	mun	1G	.	4Bn\	.	1e	1g	mun	1g	mun-	1GG	4B-\	1d	1d	1gyy	1g
.	.	.	.	.	2c\yy	.	.	.	.	.	.	2c\yy	.	.	.	.	.	.	2c\	.	.	.	.	.	.	.	2c\	.	.	.	.
.	.	.	.	.	4B\yy	.	.	.	.	.	.	4B\yy	.	.	.	.	.	.	4B\	.	.	.	.	.	.	.	4B-\	.	.	.	.
!!LO:PB:g=original	!	!	!	!	!	!	!	!	!	!	!	!	!	!	!	!	!	!	!	!	!	!	!	!	!	!	!	!	!
=9	=9	=9	=9	=9	=9	=9	=9	=9	=9	=9	=9	=9	=9	=9	=9	=9	=9	=9	=9	=9	=9	=9	=9	=9	=9	=9	=9	=9	=9	=9	=9
4C/	.	4C/	4C/yy	.	4c\yy	.	4e\yy	4g\yy	.	4C/	.	4c\	.	4e\	4g\	.	4C/	.	4c\	.	4e\	4g\	.	4g\	-di	4C/	4c\	4e\	4e\	4g/yy	4g/
4AA/	.	4AA/	4AA/yy	.	4c\yy	.	4e\yy	4a\yy	.	4AA/	.	4c\	.	4e\	4a\	.	4AA/	.	4c\	.	4e\	4a\	.	4a\	qui	4AA/	4c\	4e\	4e\	4g/yy	4g/
2AA/	.	2AA/	2AA/yy	.	2c\yy	.	2e\yy	2a\yy	.	2AA/	.	2c\	.	2e\	2a\	.	2AA/	.	2c\	.	2e\	2a\	.	2a\	tol-	2AA/	2c\	2f\	2e\	2a/yy	2a/
2FF/	.	2FF/	4FF/yy	.	4c\yy	.	4f\yy	4a\yy	.	4FF/	.	4c\	.	4f\	4a\	.	4FF/	.	4c\	.	4f\	4a\	.	4cc\	-lis	4FF/	4c\	4f\	4f\	4cc\yy	4cc\
.	.	.	4FF/yy	.	4c\yy	.	4f\yy	4a\yy	.	4FF/	.	4c\	.	4f\	4a\	.	4FF/	.	4d\	.	4f\	4a\	.	4cc\	pec-	4FF/	4c\	4f\	4f\	4cc\yy	4cc\
4BB-/	.	4BB-/	4BB-/yy	.	4F\yy	.	4f\yy	4b-\yy	.	4BB-/	.	4F\	.	4f\	4b-\	.	4BB-/	.	4G\	.	4f\	4b-\	.	4dd\	-ca-	4BB-/	4F/	4f\	2f\	4dd\yy	4dd\
4AA/	.	4AA/	4AA/yy	.	4A\yy	.	4f\yy	4cc\yy	.	4AA/	.	4A\	.	4f\	4cc\	.	4AA/	.	4A\	.	4f\	4cc\	.	4cc\	-ta	4AA/	4A/	4f\	.	4cc\yy	4cc\
=10	=10	=10	=10	=10	=10	=10	=10	=10	=10	=10	=10	=10	=10	=10	=10	=10	=10	=10	=10	=10	=10	=10	=10	=10	=10	=10	=10	=10	=10	=10	=10
1C	.	1C	1Cyy	.	1Gyy	.	4e\yy	1gyy	.	1C	.	1G	.	4e\	1g	.	1C	.	1G	.	4e\	1g	.	1cc	mun-	1C	1G	1g	4f\	1ccyy	1cc
.	.	.	.	.	.	.	2f\yy	.	.	.	.	.	.	2f\	.	.	.	.	.	.	2e\	.	.	.	.	.	.	.	2f\	.	.
.	.	.	.	.	.	.	4e\yy	.	.	.	.	.	.	4e\	.	.	.	.	.	.	4e\	.	.	.	.	.	.	.	4e\	.	.
1F	.	1F	2FF/yy	.	2A\yy	.	1fyy	2a\yy	.	2FF/	.	2A\	.	1f	2a\	.	1FF	.	1A	.	1f	1a	.	1cc	-di	1FF	1A	1f	1f	1ccyy	1cc
*	*	*	*2\right	*	*	*	*	*	*	*2\right	*	*	*	*	*	*	*	*	*	*	*	*	*	*	*	*	*	*	*	*	*
.	.	.	2F\yy	.	2A\yy	.	.	[y2a\yy	mi-	2F\	.	2A\	.	.	[2a\	mi-	.	.	.	.	.	.	.	.	.	.	.	.	.	.	.
=11	=11	=11	=11	=11	=11	=11	=11	=11	=11	=11	=11	=11	=11	=11	=11	=11	=11	=11	=11	=11	=11	=11	=11	=11	=11	=11	=11	=11	=11	=11	=11
2C#X\	6	2C#X\	2C#X\yy	.	2E/yy	.	2.e\yy	4a\]yy	.	2C#X\	.	2E/	.	2.e\	4a\]	.	0r	.	0r	.	0r	0r	.	0r	.	0r	0r	0r	0r	0r	0r
.	.	.	.	.	.	.	.	4g\yy	-se-	.	.	.	.	.	4g\	-se-	.	.	.	.	.	.	.	.	.	.	.	.	.	.	.
2D\	5:6	2D\	2D\yy	.	4F/yy	.	.	2f\yy	-re-	2D\	.	4F/	.	.	2f\	-re-	.	.	.	.	.	.	.	.	.	.	.	.	.	.	.
.	.	.	.	.	4A/yy	.	2d\yy	.	.	.	.	4A/	.	2d\	.	.	.	.	.	.	.	.	.	.	.	.	.	.	.	.	.
2FF#X/	6:5	2FF#X/	2FF#X/yy	.	2.A\yy	.	.	2a\yy	-re	2FF#X/	.	2.A\	.	.	2a\	-re	.	.	.	.	.	.	.	.	.	.	.	.	.	.	.
.	.	.	.	.	.	.	2c\yy	.	.	.	.	.	.	2c\	.	.	.	.	.	.	.	.	.	.	.	.	.	.	.	.	.
2GG/	.	2GG/	2GG/yy	.	.	.	.	4d/yy	no-	2GG/	.	.	.	.	4d/	no-	.	.	.	.	.	.	.	.	.	.	.	.	.	.	.
.	.	.	.	.	[y4G\yy	.	4B-/yy	4e/yy	.	.	.	[4G\	.	4B-\	4e/	.	.	.	.	.	.	.	.	.	.	.	.	.	.	.	.
=12	=12	=12	=12	=12	=12	=12	=12	=12	=12	=12	=12	=12	=12	=12	=12	=12	=12	=12	=12	=12	=12	=12	=12	=12	=12	=12	=12	=12	=12	=12	=12
1AA	#:4:# 7:6:5	1AA	1AAyy	.	4G\]yy	.	1Ayy	4c#X/yy	.	1AA	.	4G\]	.	1A	4c#X/	.	0r	.	1r	.	1r	1r	.	1r	.	0r	0r	0r	0r	0r	0r
.	.	.	.	.	4F\yy	.	.	[y4d/yy	.	.	.	4F\	.	.	[4d/	.	.	.	.	.	.	.	.	.	.	.	.	.	.	.	.
.	.	.	.	.	2E\yy	.	.	4d/]yy	.	.	.	2E\	.	.	4d/]	.	.	.	.	.	.	.	.	.	.	.	.	.	.	.	.
.	.	.	.	.	.	.	.	4c#X/yy	.	.	.	.	.	.	4c#X/	.	.	.	.	.	.	.	.	.	.	.	.	.	.	.	.
2D\	.	2D\	2D\yy	.	2E\yy	.	2A/yy	2d/yy	-stri	2D\	.	2E\	.	2A/	2d/	-stri	.	.	2d\	.	2f\	2a\	.	4r	.	.	.	.	.	.	.
.	.	.	.	.	.	.	.	.	.	.	.	.	.	.	.	.	.	.	.	.	.	.	.	2dd\	mi-	.	.	.	.	.	.
2A\	.	2A\	2ryy	.	2ryy	.	2ryy	2ryy	.	2r	.	2r	.	2r	2r	.	.	.	2A\	.	2e\	2a\	.	.	.	.	.	.	.	.	.
.	.	.	.	.	.	.	.	.	.	.	.	.	.	.	.	.	.	.	.	.	.	.	.	[4cc\	-se-	.	.	.	.	.	.
=13	=13	=13	=13	=13	=13	=13	=13	=13	=13	=13	=13	=13	=13	=13	=13	=13	=13	=13	=13	=13	=13	=13	=13	=13	=13	=13	=13	=13	=13	=13	=13
2B-X\	9:8	2B-X\	0r	.	0r	.	0r	0r	.	0r	.	0r	.	0r	0r	.	0r	.	2B-\	.	2.d\	2f/	.	4cc\]	.	0r	0r	0r	0r	0r	0r
.	.	.	.	.	.	.	.	.	.	.	.	.	.	.	.	.	.	.	.	.	.	.	.	4b-\	-re-	.	.	.	.	.	.
2F#X\	6:5	2F#X\	.	.	.	.	.	.	.	.	.	.	.	.	.	.	.	.	2F#X/	.	.	2.d/	.	2a\	-re	.	.	.	.	.	.
.	.	.	.	.	.	.	.	.	.	.	.	.	.	.	.	.	.	.	.	.	4c\	.	.	.	.	.	.	.	.	.	.
1G	4n:n	1G	.	.	.	.	.	.	.	.	.	.	.	.	.	.	.	.	1G	.	4Bn\	.	.	1g	no-	.	.	.	.	.	.
.	.	.	.	.	.	.	.	.	.	.	.	.	.	.	.	.	.	.	.	.	2c\	4e-X/	.	.	.	.	.	.	.	.	.
.	.	.	.	.	.	.	.	.	.	.	.	.	.	.	.	.	.	.	.	.	.	2d/	.	.	.	.	.	.	.	.	.
.	.	.	.	.	.	.	.	.	.	.	.	.	.	.	.	.	.	.	.	.	4B\	.	.	.	.	.	.	.	.	.	.
=14	=14	=14	=14	=14	=14	=14	=14	=14	=14	=14	=14	=14	=14	=14	=14	=14	=14	=14	=14	=14	=14	=14	=14	=14	=14	=14	=14	=14	=14	=14	=14
!	!	!	!	!	!	!	!	!	!	!	!	!	!	!	!	!	!	!	!	!	!	!	!	!	!	!	!	!LO:TX:a:i:t=colla 1ma	!	!	!
2C\	.	2C\	2c\	.	2.e-X\yy	.	2g\yy	2.cc\yy	mi-	2c\	.	2.e-X\	.	2g\	2.cc\	mi-	0r	.	2C/	.	2c\	2e/	.	2g\	-stri	2C\	2.e-X\	2g\yy	2g\	2.cc\yy	2.cc\
2G\	.	2G\	2G\	.	.	.	2g\yy	.	.	2G\	.	.	.	2g\	.	.	.	.	2r	.	2r	2r	.	2r	.	2G\	.	2g\yy	2g\	.	.
.	.	.	.	.	4d\yy	.	.	2b-\yy	-se-	.	.	4d\	.	.	2b-\	-se-	.	.	.	.	.	.	.	.	.	.	4d\	.	.	[y4b-X\yy	[4b-X\
2A-X\	5-r	2A-X\	2A-X\	.	2.c\yy	.	2e-X\yy	.	.	2A-X\	.	2.c\	.	2e-X\	.	.	.	.	1r	.	1r	1r	.	1r	.	2A-X\	2.c\	2e-X\yy	2e-X\	4b-\]yy	4b-\]
.	.	.	.	.	.	.	.	2a-X\yy	-re-	.	.	.	.	.	2a-X\	-re-	.	.	.	.	.	.	.	.	.	.	.	.	.	2a-X\yy	2a-X\
2F\	.	2F\	2F\	.	.	.	2f\yy	.	.	2F\	.	.	.	2f\	.	.	.	.	.	.	.	.	.	.	.	2F\	.	2f\yy	2f\	.	.
.	.	.	.	.	4c\yy	.	.	4a-\yy	-re	.	.	4c\	.	.	4a-\	-re	.	.	.	.	.	.	.	.	.	.	4c\	.	.	4a-\yy	4a-\
!!LO:PB:g=original	!	!	!	!	!	!	!	!	!	!	!	!	!	!	!	!	!	!	!	!	!	!	!	!	!	!	!	!	!
=15	=15	=15	=15	=15	=15	=15	=15	=15	=15	=15	=15	=15	=15	=15	=15	=15	=15	=15	=15	=15	=15	=15	=15	=15	=15	=15	=15	=15	=15	=15	=15
2G\	4nr	2G\	2G\yy	.	4.c\yy	.	2d\yy	2g\yy	no-	2G\	.	4.c\	.	2d\	2g\	no-	2r	.	2r	.	2r	2r	.	2r	.	2G\	4.c\	2d\yy	2d\	2g/yy	2g/
.	.	.	.	.	8Bn\yy	.	.	.	.	.	.	8Bn\	.	.	.	.	.	.	.	.	.	.	.	.	.	.	8Bn\	.	.	.	.
2C/	-	2C/	2C\yy	.	2c\yy	.	2e-X\yy	2g\yy	-stri	2C\	.	2c\	.	2e-X\	2g\	-stri	2C/	mi-	2.G/	.	4r	4r	.	4r	.	2C/	2c\	2c\yy	2e-X\	2g/yy	2g/
*	*	*	*	*	*	*	*	*	*	*	*	*	*	*	*	*	*	*	*	*	*	*	*	*	*ij	*	*	*	*	*	*
.	.	.	.	.	.	.	.	.	.	.	.	.	.	.	.	.	.	.	.	.	2g\	2ee-X\	.	2cc\	mi-	.	.	.	.	.	.
2GG/	6:5 4:n	2GG/	1ryy	.	1ryy	.	1ryy	1ryy	.	1r	.	1r	.	1r	1r	.	2GG/	-se-	.	.	.	.	.	.	.	1r	1r	1ryy	1r	1ryy	1r
.	.	.	.	.	.	.	.	.	.	.	.	.	.	.	.	.	.	.	4G/	.	2g\	4dd\	.	2b-\	-se-	.	.	.	.	.	.
2D\	4:3	2D\	.	.	.	.	.	.	.	.	.	.	.	.	.	.	2D\	-re-	4.B-\	.	.	[2dd\	.	.	.	.	.	.	.	.	.
.	.	.	.	.	.	.	.	.	.	.	.	.	.	.	.	.	.	.	.	.	4f\	.	.	4a\	-re-	.	.	.	.	.	.
.	.	.	.	.	.	.	.	.	.	.	.	.	.	.	.	.	.	.	8F/	.	.	.	.	.	.	.	.	.	.	.	.
=16	=16	=16	=16	=16	=16	=16	=16	=16	=16	=16	=16	=16	=16	=16	=16	=16	=16	=16	=16	=16	=16	=16	=16	=16	=16	=16	=16	=16	=16	=16	=16
2E-X\	.	2E-X\	0ryy	.	0ryy	.	0ryy	0ryy	.	0r	.	0r	.	0r	0r	.	2E-X\	-re	2G/	.	2e-X\	4dd\]	.	2g\	-re	0r	0r	0r	0r	0r	0r
.	.	.	.	.	.	.	.	.	.	.	.	.	.	.	.	.	.	.	.	.	.	4cc\	.	.	.	.	.	.	.	.	.
2D\	6	2D\	.	.	.	.	.	.	.	.	.	.	.	.	.	.	2D\	no-	2F/	.	2f\	2dd\	.	1b-	no-	.	.	.	.	.	.
1F	4:3	1F	.	.	.	.	.	.	.	.	.	.	.	.	.	.	2F\	.	1F	.	1f	2cc\	.	.	.	.	.	.	.	.	.
.	.	.	.	.	.	.	.	.	.	.	.	.	.	.	.	.	2FF/	.	.	.	.	2r	.	2a\	-stri	.	.	.	.	.	.
*	*	*	*	*	*	*	*	*	*	*	*	*	*	*	*	*	*	*	*	*	*	*	*	*	*Xij	*	*	*	*	*	*
=17	=17	=17	=17	=17	=17	=17	=17	=17	=17	=17	=17	=17	=17	=17	=17	=17	=17	=17	=17	=17	=17	=17	=17	=17	=17	=17	=17	=17	=17	=17	=17
1BB-	4:3	1BB-	1B-yy	.	2ryy	.	2ryy	1.b-yy	.	1B-	.	2r	.	2r	1.b-	.	1BB-	-stri	2r	.	1r	1r	.	1r	.	1BB-	2r	0r	1r	0r	1r
!	!	!	!	!	!	!	!	!	!	!	!	!LO:TX:a:i:t=col tenore del Coro 1.	!	!	!	!	!	!	!	!	!	!	!	!	!	!	!	!	!	!	!
.	.	.	.	.	1dyy	.	2f\yy	.	.	.	.	1dyy	.	2f\	.	.	.	.	1d	.	.	.	.	.	.	.	1d	.	.	.	.
1F#X	6:5	1F#X	1F#Xyy	.	.	.	2d\yy	.	.	1F#X	.	.	.	2d\	.	.	2r	.	.	.	2r	2r	.	2r	.	1F#X	.	.	2ryy	.	2r
.	.	.	.	.	[yy2c\yy	.	2A\yy	(y2a\yy	.	.	.	[y2c\yy	.	2A\	(y2a\	.	2F#X\	mi-	[2c\	.	2A/	(y2a\	mi-	(2a\	mi-	.	[2c\	.	2A\	.	2aa\
=18	=18	=18	=18	=18	=18	=18	=18	=18	=18	=18	=18	=18	=18	=18	=18	=18	=18	=18	=18	=18	=18	=18	=18	=18	=18	=18	=18	=18	=18	=18	=18
!	!	!	!	!	!	!	!	!	!	!	!	!	!	!	!LO:TX:a:i:t=con Canto 1 del Coro 1.	!	!	!	!	!	!	!LO:TX:a:i:t=col primo	!	!	!	!	!	!LO:TX:a:i:t=colla 1ma	!	!	!
1G	4nr	1G	2.G\yy	.	2c\]yy	.	1dyy	2.g\)yy	.	2.G\	.	2c\]yy	.	1d	2.g\)yy	.	1G	-se-	2c\]	.	1d	2.g\)yy	.	2.g\)	.	1G	2c\]	1dyy	1d	2.gg\yy	2.gg\
.	.	.	.	.	[yy2B-\yy	.	.	.	.	.	.	[y2B-\yy	.	.	.	.	.	.	[2B-\	.	.	.	.	.	.	.	1B-	.	.	.	.
.	.	.	4G\yy	.	.	.	.	4f\yy	-se-	4G\	.	.	.	.	4f\yy	-se-	.	.	.	.	.	4f\yy	-se-	4f\	-se-	.	.	.	.	4ff\yy	4ff\
[>1C	3:4:3 7:6:5	[1C	[y1Cyy	.	2B-\]yy	.	[y1cyy	2e\yy	-re-	[>1C	.	2B-\]yy	.	[1c	2e\yy	-re-	[>1C	-re-	2B-\]	.	2.c\	2e\yy	-re-	2e\	-re-	[>1C	.	1cyy	1c	2ee\yy	2ee\
.	.	.	.	.	2A\yy	.	.	[y2f\yy	.	.	.	2A\yy	.	.	[y2f\yy	.	.	.	2A\	.	.	[y2f\yy	.	[2f\	.	.	2A\	.	.	[y2ff\yy	[2ff\
.	.	.	.	.	.	.	.	.	.	.	.	.	.	.	.	.	.	.	.	.	4c\	.	.	.	.	.	.	.	.	.	.
=19	=19	=19	=19	=19	=19	=19	=19	=19	=19	=19	=19	=19	=19	=19	=19	=19	=19	=19	=19	=19	=19	=19	=19	=19	=19	=19	=19	=19	=19	=19	=19
1C]	.	1C]	1C]yy	.	1.Gyy	.	1c]yy	2f\]yy	.	1C]	.	1.Gyy	.	1c]	2f\]yy	.	1C]	.	1.G	.	1c	2f\]yy	.	2f\]	.	1C]	1.G	1cyy	1c	2ff\]yy	2ff\]
.	.	.	.	.	.	.	.	2e\yy	-re	.	.	.	.	.	2e\yy	-re	.	.	.	.	.	2e\yy	-re	2e\	-re	.	.	.	.	2ee\yy	2ee\
!	!	!	!	!	!	!	!	!	!	!LO:TX:a:i:t=col basso del Coro 1	!	!	!	!LO:TX:a:i:t=col alto del Coro 1	!	!	!	!	!	!	!	!	!	!	!	!	!	!	!	!	!
1FF	5:8	1FF	2.FF/yy	-re	.	.	2c\yy	[y1ayy	mi-	2.FF/yy	-re	.	.	2c\yy	[y1ayy	mi-	2.FF/	-re	.	.	2c\	[y1ayy	mi-	[1a	mi-	1FF	.	2.c\yy	2.c\	1ayy	1a
.	.	.	.	.	2F\yy	.	4c\yy	.	.	.	.	2F\yy	.	4c\yy	.	.	.	.	2F\	.	4c\	.	.	.	.	.	2F/	.	.	.	.
.	.	.	8F\yy	.	.	.	4f\yy	.	.	8F\yy	.	.	.	4f\yy	.	.	8F\	.	.	.	4f\	.	.	.	.	.	.	4f\yy	4f\	.	.
.	.	.	8F\yy	.	.	.	.	.	.	8F\yy	.	.	.	.	.	.	8F\	.	.	.	.	.	.	.	.	.	.	.	.	.	.
=20	=20	=20	=20	=20	=20	=20	=20	=20	=20	=20	=20	=20	=20	=20	=20	=20	=20	=20	=20	=20	=20	=20	=20	=20	=20	=20	=20	=20	=20	=20	=20
2.GG/	.	2.GG/	2.G\yy	.	1.B-yy	.	1dyy	2a\]yy	.	2.G\yy	.	1.B-yy	.	1dyy	2a\]yy	.	2.G\	.	1.B-	.	1d	2a\]yy	.	2a\]	.	2GG/	1.B-	1dyy	1d	2ryy	2r
.	.	.	.	.	.	.	.	2g\yy	-se-	.	.	.	.	.	2g\yy	-se-	.	.	.	.	.	2g\yy	-se-	2g\	-se-	4G\	.	.	.	2g/yy	2g/
4FF/	.	4FF/	4F\yy	.	.	.	.	.	.	4F\yy	.	.	.	.	.	.	4F\	.	.	.	.	.	.	.	.	4G\	.	.	.	.	.
2EE/	6	2EE/	2E\yy	.	.	.	2g\yy	[y1ccyy	-re-	2E\yy	.	.	.	2g\yy	[y1ccyy	-re-	2E\	.	.	.	2g\	[y1ccyy	-re-	[1cc	-re-	2E\	.	2g\yy	2g\	[y1ccyy	[1cc
2FF/	6	2FF/	2F\yy	.	2A\yy	.	[y2f\yy	.	.	2F\yy	.	2A\yy	.	[y2f\yy	.	.	2F\	.	2A\	.	[2f\	.	.	.	.	2F\	2A\	(y2g\yy	(2g\	.	.
!!LO:PB:g=original	!	!	!	!	!	!	!	!	!	!	!	!	!	!	!	!	!	!	!	!	!	!	!	!	!	!	!	!	!
=21	=21	=21	=21	=21	=21	=21	=21	=21	=21	=21	=21	=21	=21	=21	=21	=21	=21	=21	=21	=21	=21	=21	=21	=21	=21	=21	=21	=21	=21	=21	=21
1BB-	.	1BB-	1BB-yy	.	2.d\yy	.	2f\]yy	2cc\]yy	.	1BB-yy	.	2.d\yy	.	2f\]yy	2cc\]yy	.	1BB-	.	2.d\	.	2f\]	2cc\]yy	.	2cc\]	.	1BB-	1d	2f\)yy	2f\)	2cc\]yy	2cc\]
!	!	!	!	!	!	!	!	!	!	!	!	!	!	!	!	!	!	!	!	!	!	!	!	!	!	!	!	!	!LO:TX:a:t=g	!	!
.	.	.	.	.	.	.	2g\yy	[y2b-\yy	.	.	.	.	.	2g\yy	[y2b-\yy	.	.	.	.	.	2g\	[y2b-\yy	.	[2b-\	.	.	.	2g\yy	2g\	[y2b-\yy	[2b-\
.	.	.	.	.	4d\yy	.	.	.	.	.	.	4d\yy	.	.	.	.	.	.	4d\	.	.	.	.	.	.	.	.	.	.	.	.
[>1C	.	[1C	1Cyy	.	1cyy	no-	2e\yy	2b-\]yy	.	1Cyy	.	1cyy	no-	2e\yy	2b-\]yy	.	1C	.	1c	no-	2e\	2b-\]yy	.	2b-\]	.	1C	1c	2e\yy	2e\	2b-\]yy	2b-\]
.	.	.	.	.	.	.	[y2f\yy	2a\yy	-re	.	.	.	.	[y2f\yy	2a\yy	-re	.	.	.	.	[2f\	2a\yy	-re	2a\	-re	.	.	[y2f\yy	[2f\	2a\yy	2a\
=22	=22	=22	=22	=22	=22	=22	=22	=22	=22	=22	=22	=22	=22	=22	=22	=22	=22	=22	=22	=22	=22	=22	=22	=22	=22	=22	=22	=22	=22	=22	=22
0C]	7:6 3:4	0C]	0Cyy	.	0cyy	.	2f\]yy	1gyy	no-	0Cyy	.	0cyy	.	2f\]yy	1gyy	no-	0C	.	0c	.	2f\]	1gyy	no-	1g	no-	0C	0c	2f\]yy	2f\]	1gyy	1g
.	.	.	.	.	.	.	2e\yy	.	.	.	.	.	.	2e\yy	.	.	.	.	.	.	2e\	.	.	.	.	.	.	2e\yy	2e\	.	.
.	.	.	.	.	.	.	[y1fyy	1ayy	.	.	.	.	.	[y1fyy	1ayy	.	.	.	.	.	[1f	1ayy	.	1a	.	.	.	[y1fyy	[1f	[y1ayy	[>1a
=23	=23	=23	=23	=23	=23	=23	=23	=23	=23	=23	=23	=23	=23	=23	=23	=23	=23	=23	=23	=23	=23	=23	=23	=23	=23	=23	=23	=23	=23	=23	=23
0FF	5 3	0FF	0FF	.	0c	.	0f]	0a	.	0FF	.	0c	.	0f]	0a	-stri	0FF	.	0c	-stri	0f]	0a	.	0a;	-stri	0FF;	0c;	0f]	0f;]	0a;]	0a;]
==	==	==	==	==	==	==	==	==	==	==	==	==	==	==	==	==	==	==	==	==	==	==	==	==	==	==	==	==	==	==	==
*-	*-	*-	*-	*-	*-	*-	*-	*-	*-	*-	*-	*-	*-	*-	*-	*-	*-	*-	*-	*-	*-	*-	*-	*-	*-	*-	*-	*-	*-	*-	*-
!!!system-decoration: s1,s2,s3,s4,s5,s6[(s7,s8,s9,s10,s11)][(s12,s13,s14,s15)][(s16,s17,s18,s19)][(s20)]
!!!RDF**kern: > = above
!!!RDF**kern: < = below
!!!ENC: Anastazja Marusiak
!!!END: 2022-10-21
!!!ENC: Natalia Wrzos
!!!END: 2022-11-09
!!!YEC: Copyright 2022 Narodowy Instytut Fryderyka Chopina (https://polishscores.org)
!!!YEM: License CC-BY-4.0 (https://creativecommons.org/licenses/by/4.0)
